src/status/16/qbittorrent-tray.svg

<svg width="16" height="16" version="1" xmlns="http://www.w3.org/2000/svg">
 <defs>
  <style id="current-color-scheme" type="text/css">.ColorScheme-Text { color:#363636; } .ColorScheme-Highlight { color:#4285f4; }</style>
 </defs>
 <path class="ColorScheme-Text" d="m9 2v6.9473c-1.545e-4 0.017576-1.545e-4 0.035154 0 0.05273v3h1v-0.76367c0.55006 0.49186 1.2621 0.76374 2 0.76367 0.01693 1.43e-4 0.03385 1.43e-4 0.05078 0 1.637-0.02772 2.9494-1.3628 2.9492-3 0-1.6569-1.3431-3-3-3-0.73816 4.641e-4 -1.4502 0.27305-2 0.76562v-4.7656h-1zm-5.0508 2c-1.637 0.027723-2.9494 1.3628-2.9492 3-1.7e-7 1.6569 1.3431 3 3 3 0.73815-4.642e-4 1.4502-0.27305 2-0.76562v4.7656h1v-6.9473c1.545e-4 -0.017576 1.545e-4 -0.035154 0-0.05273v-3h-1v0.76367c-0.55006-0.49186-1.2621-0.76374-2-0.76367-0.016927-1.433e-4 -0.033854-1.433e-4 -0.050781 0zm0 1h0.00195c0.016275-1.987e-4 0.032553-1.987e-4 0.048828 0 1.0858-3.233e-4 1.9735 0.86573 2 1.9512 1.987e-4 0.016276 1.987e-4 0.032554 0 0.04883 0 1.1046-0.89543 2-2 2s-2-0.89543-2-2c-3.501e-4 -1.085 0.86452-1.9724 1.9492-2zm8 2h2e-3c0.01628-1.987e-4 0.03255-1.987e-4 0.04883 0 1.1046 0 2 0.89543 2 2 3.23e-4 1.0858-0.86573 1.9735-1.9512 2-0.01628 1.99e-4 -0.03255 1.99e-4 -0.04883 0-1.1046 0-2-0.89543-2-2-3.501e-4 -1.085 0.86452-1.9724 1.9492-2z" fill="currentColor"/>
</svg>

<svg xmlns="http://www.w3.org/2000/svg" width="16" height="16" version="1">
    <defs>
        <style id="current-color-scheme" type="text/css">
            .ColorScheme-Highlight{color:#a0b6cb}
        </style>
    </defs>
    <path fill="currentColor" d="M9 2v6.947A3 3 0 0 0 9 9v3h1v-.764a3 3 0 1 0 0-4.47V2H9zM3.95 4A3 3 0 1 0 6 9.234V14h1V7.053A3 3 0 0 0 7 7V4H6v.764A3 3 0 0 0 3.95 4zm0 1h.001a2 2 0 1 1 .103 4 2 2 0 0 1-.105-4zm8 2h.001a2 2 0 1 1 .102 4 2 2 0 0 1-.104-4z" style="color:#050505;opacity:.7"/>
</svg>
